X: 14
T:Just One Little Number
M:4/4
L:1/8
Q:120
C:Alan Muggeridge
K:D
a|"D"dd d>e fa3|dd d>e fa3|dd de f4|fa af "Bm"b4|!
"G"b>b "A"aa "D"f2 ff|"G"gf ed "A"B<A Bc|
"D"dd "G"b>a "D"af2f|"A"e>e f>e "D"d2 dd|!
"G"gb b>a "D"af2f|"A"e>e a2-a4-|
a4-a3c| "D"d3"G"z"D"z4|"D"z3"G"z"D"z3|
T:Verses 2 & 4 begin:
d|"D"dd de f2fe|d>e dB A3A/A/|dd d>d fa af|fa af "Bm"b3z||
